Adwaita++/actions/22/labplot-shift-up-y.svg

<svg height="22" viewBox="0 0 22 22" width="22" xmlns="http://www.w3.org/2000/svg">
  <path d="m4 3-4 2 4 2zm8 0v4l4-2zm-4 1c-.554 0-1 .446-1 1s.446 1 1 1 1-.446 1-1-.446-1-1-1zm-2 5 2 4 2-4z" fill="#444" transform="translate(3 3)"/>
</svg>

<svg xmlns="http://www.w3.org/2000/svg" width="22" height="22" viewBox="0 0 22 22">
 <defs>
  <style id="current-color-scheme" type="text/css">
   .ColorScheme-Text { color:#444444; } .ColorScheme-Highlight { color:#4285f4; }
  </style>
 </defs>
 <path style="fill:currentColor" class="ColorScheme-Text" d="M 4 3 L 0 5 L 4 7 L 4 3 z M 12 3 L 12 7 L 16 5 L 12 3 z M 8 4 C 7.446 4 7 4.446 7 5 C 7 5.554 7.446 6 8 6 C 8.554 6 9 5.554 9 5 C 9 4.446 8.554 4 8 4 z M 6 9 L 8 13 L 10 9 L 6 9 z" transform="translate(3 3)"/>
</svg>
